X:1
T:Hear the Wail
T:Hear the Wail
T:Harmony by Ella MacGill
T:Jacob Wakefield MacGill (1829-1902)
T:Public Domain Courtesy of the Cyber Hymnal™
C:Harmony by Ella MacGill
Z:Public Domain
Z:Courtesy of the Cyber Hymnal™
%%score ( 1 2 ) ( 3 4 )
L:1/8
Q:1/4=75
M:2/4
K:Ab
V:1 treble 
V:2 treble 
V:3 bass 
V:4 bass 
V:1
 [EA]>[EA] | [Ae]>[Ae] [Ac][Ac] | [GB]2 [Ec]>F | [EA]>[EG] [EG][=DF] | [B,E]2 [DF]>[DF] | %5
w: 1.~Hear the|wail a- cross the|sea Comes from|mil- lions un- to|thee— Wea- ry|
w: 2.~Wail- ing|of the pro- phet|cursed, Of fa-|na- tics, wild- est,|worst, Help us,|
w: 3.~Wail- ings|reach this fa- vored|shore, Wail- ings|ceas- ing ne- ver-|more; Men are|
 [CA]>[FA] [GB]>[Ac] | !fermata![Ae]>[Ae] [Af]>[Gce] | [Ac]>[FB] [GB]>A | [EA]2 || %9
w: ones who might be|free Did they but|know of Cal- va-|ry.|
w: Lord, their chains to|burst, And set them|free by Cal- va-|ry.|
w: dy- ing ev- er-|more; Go, tell them|all of Cal- va-|ry.|
"^Refrain" [EA]>[EA] | [Ae]>[Ae] [Ac][Ac] | [GB]2 [Ec]>F | [EA]>[EG] [EG][=DF] | [B,E]2 [DF]>[DF] | %14
w: |||||
w: Wail- ing,|wail- ing o’er the|sea; Wail- ing,|wail- ing un- to|thee; Wail- ing,|
w: |||||
 [CA]>[FA] [GB]>[Ac] | !fermata![Ae]>[Ae] [Af]>[Gce] | [Ac]>[FB] [GB]>A | [EA]2 |] %18
w: ||||
w: wail- ing to be|free; Go, tell them|all of Cal- va-|ry.|
w: ||||
V:2
 x2 | x4 | x7/2 F/ | x4 | x4 | x4 | x4 | x7/2 A/ | x2 || x2 | x4 | x7/2 F/ | x4 | x4 | x4 | x4 | %16
 x7/2 A/ | x2 |] %18
V:3
 [A,C]>[A,C] | [A,C]>[A,C] [A,E][A,E] | [E,E]2 A,>[D,A,] | [C,A,]>[A,,C] [B,,B,][B,,B,] | %4
 [E,G,]2 [D,A,]>[D,A,] | [F,A,]>[F,C] [E,E]>[A,,E] | !fermata![A,C]>[A,C] [D,D]>[E,B,] | %7
 A,>[D,D] [E,D]>[A,,C] | [A,,C]2 || [A,C]>[A,C] | [A,C]>[A,C] [A,E][A,E] | [E,E]2 A,>[D,A,] | %12
 [C,A,]>[A,,C] [B,,B,][B,,B,] | [E,G,]2 [D,A,]>[D,A,] | [F,A,]>[F,C] [E,E]>[A,,E] | %15
 !fermata![A,C]>[A,C] [D,D]>[E,B,] | A,>[D,D] [E,D]>[A,,C] | [A,,C]2 |] %18
V:4
 x2 | x4 | x2 A,3/2 x/ | x4 | x4 | x4 | x4 | A,3/2 x5/2 | x2 || x2 | x4 | x2 A,3/2 x/ | x4 | x4 | %14
 x4 | x4 | A,3/2 x5/2 | x2 |] %18

